X:1
T:Still Waters
C:Heifer Zephyr (original, MIT license)
M:4/4
L:1/8
Q:1/4=80
K:C
|: E4 G4 | c4 B2 A2 | G2 A2 B2 c2 | G8 |
   A4 c4 | e4 d2 c2 | B2 G2 A2 F2 | E8 :|
|: c2 B2 A2 G2 | F4 E2 D2 | E2 G2 c2 e2 | d8 |
   c2 d2 e2 f2 | e4 c4 | G2 A2 B2 c2 | G8 :|
